X: 20722
M: 2/4
L: 1/16
K: F
c2AB c2f2 | d4 B2 ba | g2gec2c'2 | abga f2AB |\
c2AB c2f2 | d4 b2 ba | gfed cBAG | F2Acf2 :|
|: c2 |\
bg^fg cegb | afef Acfg | bg^fg cegb | afef Acfa |\
deba gfed | cfed fedc | debg afge | f2a2f2 :|



